Costumes/E-glow.svg

<?xml version="1.0" encoding="UTF-8" standalone="no"?>
<svg
   version="1.1"
   width="68.000114"
   height="76.125046"
   id="svg8"
   sodipodi:docname="E-glow.svg"
   xmlns:inkscape="http://www.inkscape.org/namespaces/inkscape"
   xmlns:sodipodi="http://sodipodi.sourceforge.net/DTD/sodipodi-0.dtd"
   xmlns="http://www.w3.org/2000/svg"
   xmlns:svg="http://www.w3.org/2000/svg">
  <defs
     id="defs12" />
  <sodipodi:namedview
     id="namedview10"
     pagecolor="#ffffff"
     bordercolor="#000000"
     borderopacity="0.25"
     inkscape:showpageshadow="2"
     inkscape:pageopacity="0.0"
     inkscape:pagecheckerboard="0"
     inkscape:deskcolor="#d1d1d1" />
  <!-- Exported by Scratch - http://scratch.mit.edu/ -->
  <g
     id="ID0.08588057802990079"
     transform="translate(3.9429445e-4,4.4493845e-5)">
    <g
       id="ID0.28931185230612755">
      <g
         id="ID0.5398706374689937">
        <path
           id="ID0.9761418160051107"
           fill="#00cccc"
           d="m 67.299,59.225 c 0.85,3.81 0.01,6.71 -1.05,8.65 -2.71,5.17 -7.69,8.25 -13.39,8.25 -1.09,0 -2.23,-0.11 -3.46,-0.35 h -4.47 c -1.17,0 -3.37,-0.07 -8.85,-0.68 -3.25,-0.37 -6,-0.55 -8.16,-0.55 h -5.44 c -0.14,0.01 -0.63,0.04 -1.8,0.16 -1.83,0.19 -3.22,0.28 -4.39,0.28 -3.4,0 -6.44,-0.7 -9.03,-2.07 -0.17,-0.09 -0.33,-0.19 -0.5,-0.28 -1.74,-1.05 -5.79,-4.18 -5.79,-10.76 0,-3.55 1.32,-6.83 3.71,-9.24 1.16,-1.18 2.5,-2.14 3.97,-2.87 -3.31,-3.62 -4.31,-8.75 -2.52,-13.6 0.7,-1.85 1.73,-3.47 3.05,-4.84 -6,-2.02 -8.89,-7.09 -9.08,-11.99 -0.51,-3.77 0.96,-7.6 4.01,-10.05 3.02,-2.43 6.66,-3.85 10.52,-4.13 0.25,-0.01 0.51,-0.02 0.77,-0.02 h 3.07 c 6.61,-0.12 17.83,-1.75 33.34,-4.85 2,-0.45 4.07,-0.37 6.27,0.26 1.02,0.29 3.33,0.96 5.4,2.99 0.44,0.43 0.83,0.89 1.19,1.38 1.38,1.9 2.33,4.04 2.83,6.36 0.21,1.01 0.28,2.03 0.21,3.05 -0.12,1.89 -0.05,3.98 0.21,6.21 0.33,2.7 -0.36,5.43 -1.92,7.65 -2.39,3.38 -6.04,5.52 -10.24,6.04 0.01,0.18 0.02,0.37 0.02,0.55 v 0.85 c 3.09,0.29 5.93,1.6 8.1,3.76 3.57,3.59 3.6,8.03 3.44,10.32 0.18,1.2 0.24,1.98 0.24,2.75 0,0.93 -0.09,1.95 -0.29,3.33 -0.02,0.15 -0.04,0.27 -0.06,0.39 v 2.67 c 0.03,0.13 0.06,0.25 0.09,0.38 z" />
      </g>
    </g>
    <g
       id="ID0.8532444606535137">
      <path
         id="ID0.861225085798651"
         fill="#ffffff"
         d="m 57.002,21.849 c -0.703,0.998 -1.789,1.496 -3.254,1.496 -0.763,0 -1.438,-0.146 -2.023,-0.44 -0.059,-1.583 -0.206,-3.928 -0.439,-7.037 -4.985,0.939 -12.931,2.317 -23.837,4.135 -0.528,0.059 -0.968,0.206 -1.32,0.439 0.293,5.396 0.44,10.674 0.44,15.833 0.594,0.118 2.467,-0.146 5.618,-0.792 1.546,-0.233 3.926,-0.791 7.136,-1.671 0.058,-0.938 -0.059,-2.507 -0.352,-4.706 -0.294,-2.199 -0.411,-3.826 -0.352,-4.882 0,-1.113 0.761,-1.671 2.287,-1.671 1.759,0 2.696,0.733 2.814,2.199 0.233,2.229 0.585,5.571 1.056,10.027 v 13.634 c 0.176,0.235 0.292,0.411 0.352,0.527 -0.176,0.704 -0.675,1.306 -1.495,1.804 -0.822,0.499 -1.643,0.747 -2.463,0.747 -1.056,0 -1.76,-0.468 -2.111,-1.407 0.117,-0.585 0.205,-1.495 0.264,-2.727 v -8.092 c -3.721,0.118 -7.913,0.879 -12.578,2.286 0,1.056 -0.03,3.754 -0.088,8.093 -0.06,3.577 -0.06,6.012 0,7.301 0,0.294 0.233,0.822 0.704,1.583 1.231,0.06 3.136,0.176 5.717,0.353 2.991,0.294 5.981,0.586 8.972,0.879 3.576,0.411 6.567,0.559 8.973,0.44 0.058,-0.762 0.204,-1.965 0.439,-3.606 v -5.19 c -0.352,-0.585 -0.528,-1.144 -0.528,-1.671 0,-0.88 0.366,-1.627 1.1,-2.243 0.732,-0.615 1.54,-0.924 2.419,-0.924 0.704,0 1.261,0.207 1.672,0.616 0.233,0.235 0.292,0.998 0.176,2.287 -0.06,0.294 -0.03,0.807 0.088,1.539 0.117,0.734 0.176,1.218 0.176,1.451 0,0.353 -0.059,0.924 -0.176,1.716 -0.118,0.791 -0.176,1.218 -0.176,1.275 v 5.277 c 0,0.06 0.116,0.352 0.352,0.88 0.117,0.527 0.117,0.879 0,1.056 -0.823,1.643 -2.058,2.463 -3.701,2.463 -0.412,0 -0.911,-0.058 -1.499,-0.176 -0.589,-0.117 -0.94,-0.176 -1.058,-0.176 h -5.376 c -1.41,0 -3.951,-0.205 -7.624,-0.616 -3.672,-0.409 -6.802,-0.615 -9.386,-0.615 h -5.552 c -0.471,0 -1.41,0.074 -2.82,0.22 -1.41,0.146 -2.498,0.22 -3.262,0.22 -1.586,0 -2.88,-0.264 -3.877,-0.792 -0.294,-0.176 -0.441,-0.615 -0.441,-1.319 0,-0.645 0.175,-1.144 0.523,-1.495 0.755,-0.762 1.801,-1.201 3.138,-1.319 0.871,0 1.771,0 2.702,0 0.638,0.118 1.509,0.059 2.614,-0.176 0.349,-0.177 0.553,-0.586 0.61,-1.231 0.058,-0.41 0.058,-1.025 0,-1.848 -0.058,-0.938 -0.087,-1.465 -0.087,-1.583 0,-6.099 -0.028,-9.588 -0.087,-10.468 -1.037,-0.116 -2.479,-0.497 -4.323,-1.144 -0.813,-0.645 -1.016,-1.524 -0.604,-2.639 0.352,-0.938 1.144,-1.612 2.375,-2.023 0.879,-0.292 1.759,-0.557 2.639,-0.791 0.176,-0.645 0.204,-1.437 0.088,-2.375 -0.118,-0.82 -0.206,-1.612 -0.264,-2.375 -0.118,-2.521 -0.323,-6.391 -0.616,-11.611 -0.235,0 -1.026,0.074 -2.375,0.221 -1.35,0.146 -2.405,0.22 -3.166,0.22 -2.698,0 -4.047,-0.807 -4.047,-2.422 0,-0.229 0.029,-0.489 0.088,-0.778 -0.059,-0.115 -0.116,-0.173 -0.176,-0.173 1.289,-1.036 2.756,-1.613 4.398,-1.729 1.056,0 2.11,0 3.166,0 7.33,-0.117 19.205,-1.817 35.624,-5.102 0.176,-0.059 0.469,-0.029 0.88,0.088 0.409,0.118 0.645,0.206 0.703,0.264 0.469,0.646 0.792,1.378 0.968,2.199 -0.177,2.581 -0.089,5.335 0.262,8.267 z" />
    </g>
  </g>
</svg>

<svg version="1.1" width="68" height="77" xmlns="http://www.w3.org/2000/svg" xmlns:xlink="http://www.w3.org/1999/xlink">
  <!-- Exported by Scratch - http://scratch.mit.edu/ -->
  <g id="ID0.08588057802990079">
    <g id="ID0.28931185230612755">
      <g id="ID0.5398706374689937">
        <path id="ID0.9761418160051107" fill="#00CCCC" d="M 67.299 59.225 C 68.149 63.035 67.309 65.935 66.249 67.875 C 63.539 73.045 58.559 76.125 52.859 76.125 C 51.769 76.125 50.629 76.015 49.399 75.775 L 44.929 75.775 C 43.759 75.775 41.559 75.705 36.079 75.095 C 32.829 74.725 30.079 74.545 27.919 74.545 L 22.479 74.545 C 22.339 74.555 21.849 74.585 20.679 74.705 C 18.849 74.895 17.459 74.985 16.289 74.985 C 12.889 74.985 9.849 74.285 7.259 72.915 C 7.089 72.825 6.929 72.725 6.759 72.635 C 5.019 71.585 0.969 68.455 0.969 61.875 C 0.969 58.325 2.289 55.045 4.679 52.635 C 5.839 51.455 7.179 50.495 8.649 49.765 C 5.339 46.145 4.339 41.015 6.129 36.165 C 6.829 34.315 7.859 32.695 9.179 31.325 C 3.179 29.305 0.289 24.235 0.099 19.335 C -0.411 15.565 1.059 11.735 4.109 9.285 C 7.129 6.855 10.769 5.435 14.629 5.155 C 14.879 5.145 15.139 5.135 15.399 5.135 L 18.469 5.135 C 25.079 5.015 36.299 3.385 51.809 0.285 C 53.809 -0.165 55.879 -0.085 58.079 0.545 C 59.099 0.835 61.409 1.505 63.479 3.535 C 63.919 3.965 64.309 4.425 64.669 4.915 C 66.049 6.815 66.999 8.955 67.499 11.275 C 67.709 12.285 67.779 13.305 67.709 14.325 C 67.589 16.215 67.659 18.305 67.919 20.535 C 68.249 23.235 67.559 25.965 65.999 28.185 C 63.609 31.565 59.959 33.705 55.759 34.225 C 55.769 34.405 55.779 34.595 55.779 34.775 L 55.779 35.625 C 58.869 35.915 61.709 37.225 63.879 39.385 C 67.449 42.975 67.479 47.415 67.319 49.705 C 67.499 50.905 67.559 51.685 67.559 52.455 C 67.559 53.385 67.469 54.405 67.269 55.785 C 67.249 55.935 67.229 56.055 67.209 56.175 L 67.209 58.845 C 67.239 58.975 67.269 59.095 67.299 59.225 Z "/>
      </g>
    </g>
    <g id="ID0.8532444606535137">
      <path id="ID0.861225085798651" fill="#FFFFFF" d="M 57.002 21.849 C 56.299 22.847 55.213 23.345 53.748 23.345 C 52.985 23.345 52.310 23.199 51.725 22.905 C 51.666 21.322 51.519 18.977 51.286 15.868 C 46.301 16.807 38.355 18.185 27.449 20.003 C 26.921 20.062 26.481 20.209 26.129 20.442 C 26.422 25.838 26.569 31.116 26.569 36.275 C 27.163 36.393 29.036 36.129 32.187 35.483 C 33.733 35.250 36.113 34.692 39.323 33.812 C 39.381 32.874 39.264 31.305 38.971 29.106 C 38.677 26.907 38.560 25.280 38.619 24.224 C 38.619 23.111 39.380 22.553 40.906 22.553 C 42.665 22.553 43.602 23.286 43.720 24.752 C 43.953 26.981 44.305 30.323 44.776 34.779 L 44.776 48.413 C 44.952 48.648 45.068 48.824 45.128 48.940 C 44.952 49.644 44.453 50.246 43.633 50.744 C 42.811 51.243 41.990 51.491 41.170 51.491 C 40.114 51.491 39.410 51.023 39.059 50.084 C 39.176 49.499 39.264 48.589 39.323 47.357 L 39.323 39.265 C 35.602 39.383 31.410 40.144 26.745 41.551 C 26.745 42.607 26.715 45.305 26.657 49.644 C 26.597 53.221 26.597 55.656 26.657 56.945 C 26.657 57.239 26.890 57.767 27.361 58.528 C 28.592 58.588 30.497 58.704 33.078 58.881 C 36.069 59.175 39.059 59.467 42.050 59.760 C 45.626 60.171 48.617 60.319 51.023 60.200 C 51.081 59.438 51.227 58.235 51.462 56.594 L 51.462 51.404 C 51.110 50.819 50.934 50.260 50.934 49.733 C 50.934 48.853 51.300 48.106 52.034 47.490 C 52.766 46.875 53.574 46.566 54.453 46.566 C 55.157 46.566 55.714 46.773 56.125 47.182 C 56.358 47.417 56.417 48.180 56.301 49.469 C 56.241 49.763 56.271 50.276 56.389 51.008 C 56.506 51.742 56.565 52.226 56.565 52.459 C 56.565 52.812 56.506 53.383 56.389 54.175 C 56.271 54.966 56.213 55.393 56.213 55.450 L 56.213 60.727 C 56.213 60.787 56.329 61.079 56.565 61.607 C 56.682 62.134 56.682 62.486 56.565 62.663 C 55.742 64.306 54.507 65.126 52.864 65.126 C 52.452 65.126 51.953 65.068 51.365 64.950 C 50.776 64.833 50.425 64.774 50.307 64.774 L 44.931 64.774 C 43.521 64.774 40.980 64.569 37.307 64.158 C 33.635 63.749 30.505 63.543 27.921 63.543 L 22.369 63.543 C 21.898 63.543 20.959 63.617 19.549 63.763 C 18.139 63.909 17.051 63.983 16.287 63.983 C 14.701 63.983 13.407 63.719 12.410 63.191 C 12.116 63.015 11.969 62.576 11.969 61.872 C 11.969 61.227 12.144 60.728 12.492 60.377 C 13.247 59.615 14.293 59.176 15.630 59.058 C 16.501 59.058 17.401 59.058 18.332 59.058 C 18.970 59.176 19.841 59.117 20.946 58.882 C 21.295 58.705 21.499 58.296 21.556 57.651 C 21.614 57.241 21.614 56.626 21.556 55.803 C 21.498 54.865 21.469 54.338 21.469 54.220 C 21.469 48.121 21.441 44.632 21.382 43.752 C 20.345 43.636 18.903 43.255 17.059 42.608 C 16.246 41.963 16.043 41.084 16.455 39.969 C 16.807 39.031 17.599 38.357 18.830 37.946 C 19.709 37.654 20.589 37.389 21.469 37.155 C 21.645 36.510 21.673 35.718 21.557 34.780 C 21.439 33.960 21.351 33.168 21.293 32.405 C 21.175 29.884 20.970 26.014 20.677 20.794 C 20.442 20.794 19.651 20.868 18.302 21.015 C 16.952 21.161 15.897 21.235 15.136 21.235 C 12.438 21.235 11.089 20.428 11.089 18.813 C 11.089 18.584 11.118 18.324 11.177 18.035 C 11.118 17.920 11.061 17.862 11.001 17.862 C 12.290 16.826 13.757 16.249 15.399 16.133 C 16.455 16.133 17.509 16.133 18.565 16.133 C 25.895 16.016 37.770 14.316 54.189 11.031 C 54.365 10.972 54.658 11.002 55.069 11.119 C 55.478 11.237 55.714 11.325 55.772 11.383 C 56.241 12.029 56.564 12.761 56.740 13.582 C 56.563 16.163 56.651 18.917 57.002 21.849 Z "/>
    </g>
  </g>
</svg>
